X: 21163
T: BARCAROLE SETT (tune 3)
C:
%R: jig
B: Elias Howe "The Musician's Companion" 1843 p.116 #3
S: http://imslp.org/wiki/The_Musician's_Companion_(Howe,_Elias)
Z: 2015 John Chambers <jc:trillian.mit.edu>
M: 6/8
L: 1/8
K: G
% - - - - - - - - - - - - - - - - - - - - - - - - - - - - -
V: 1 name="3"
D |\
D2G B2B | Bdc A2A | AcB G2G | GBA d2D |\
D2G B2B | Bdc A2A | B2z A2z | G3- G2 H:|
e |\
ed^c cBA | Adf d3 | A^ce Ace | d3 A2e |\
ed^c cBA | Adf d3 | A2A AB^c | d3- "^D.C>"d2 |]
A |\
g2g g2g | f3 dcd | e2c ABC | d2f a2f |\
g2g g2g | f3 dcd | e2c ABC | d3- "^D.C>"d2 |]
% - - - - - - - - - - Dance description - - - - - - - - - -
%%begintext align
%% Two ladies forward and back,
%% cross over,
%% balance each other's partners,
%% two gentlemen the same,
%% forward and back four,
%% half right and left to place.
%%endtext
% - - - - - - - - - - - - - - - - - - - - - - - - - - - - -
%%sep 1 1 300

%%sep 1 1 500

